data/cards/self-care/dancing.svg

<svg xmlns="http://www.w3.org/2000/svg" width="512" height="512" fill="none"><g clip-path="url(#a)"><path fill="#6A95D6" d="M288.73 268.591c1.086-15.514 14.544-27.209 30.058-26.123 22.144 1.551 91.988-9.774 119.094-23.208 13.935-6.904 30.83-1.208 37.736 12.725 6.906 13.934 1.209 30.829-12.725 37.736-37.677 18.674-117.73 31.052-148.04 28.928-15.548-1.089-27.207-14.576-26.123-30.058ZM72.176 350.559c-11.044-10.95-11.121-28.779-.172-39.823 19.57-19.74 84.212-62.423 137.995-73.622 15.232-3.173 30.139 6.602 33.309 21.827 3.171 15.225-6.602 30.138-21.827 33.309-40.65 8.465-95.996 44.534-109.482 58.137-10.939 11.035-28.769 11.132-39.823.172Z"/><path fill="#FFD3BD" d="M89.595 295.908c-7.48 5.609-13.515 10.717-17.59 14.828-10.95 11.044-10.874 28.873.171 39.823 11.054 10.959 28.884 10.862 39.823-.172 2.829-2.854 7.52-6.704 13.513-11.074l-35.917-43.405Zm55.375-124.739c15.774-15.773 15.774-41.346 0-57.12-15.773-15.773-41.346-15.773-57.12 0-15.773 15.774-15.773 41.347 0 57.12 15.774 15.774 41.347 15.774 57.12 0Z"/><path fill="#FFBE9D" d="M436.897 171.201c15.773-15.774 15.773-41.347 0-57.12-15.773-15.774-41.347-15.774-57.12 0-15.773 15.773-15.773 41.346 0 57.12 15.773 15.773 41.347 15.773 57.12 0Z"/><path fill="#8DAEE1" d="M360.493 316.693c0-60.255-43.91-109.101-98.076-109.101s-98.076 48.846-98.076 109.101 43.91 89.993 98.076 89.993 98.076-29.738 98.076-89.993Z"/><path fill="#FFD3BD" d="M322.949 253.064c-26.42 30.686-41.969 44.884-54.984 57.836a7.87 7.87 0 0 1-11.097 0c-13.015-12.952-28.564-27.15-54.984-57.836h121.065Z"/><path fill="#383C43" d="M237.56 451.871c-11.242-10.07-17.117-21.604-17.461-34.282-.369-13.599 5.607-24.772 9.46-28.619 7.481-7.471 9.876-18.102 7.194-27.602h-56.852c-9.276 14.102-16.74 34.151-16.1 57.748.536 19.775 7.249 48.788 36.182 74.706 11.636 10.422 29.435 9.344 39.764-2.186 10.376-11.586 9.397-29.388-2.187-39.765Zm82.919-90.504h-51.926c-4.384 9.342-3.458 20.756 3.365 29.413 12.419 15.758 59.818 73.995 73.072 92.779 9.002 12.757 26.586 15.704 39.243 6.773 12.707-8.966 15.739-26.536 6.773-39.243-13.32-18.879-53.425-68.3-70.527-89.722Z"/><path fill="#D1986F" d="M237.56 451.872c-3.325-2.978-6.167-6.087-8.549-9.313l-45.692 32.979c4.507 6.158 9.988 12.304 16.664 18.284 11.636 10.422 29.435 9.344 39.764-2.186 10.376-11.585 9.397-29.387-2.187-39.764Zm153.447-.782c-3.27-4.634-8.161-11.117-13.924-18.568l-46.008 32.567c5.899 7.597 10.835 14.106 13.915 18.47 9.002 12.757 26.586 15.704 39.243 6.773 12.708-8.966 15.74-26.535 6.774-39.242Z"/><path fill="#4E5660" d="M170.07 351.246c13.577 37.083 49.794 55.44 92.346 55.44 42.552 0 78.769-18.357 92.346-55.44H170.07Z"/><path fill="#FFD3BD" d="M262.417 274.229c80.031 0 144.908-58.927 144.908-131.617S342.448 10.995 262.417 10.995c-80.03 0-144.908 58.927-144.908 131.617s64.878 131.617 144.908 131.617Z"/><path fill="#FFBE9D" d="M322.832 262.271c-157.443-3.819-165.67-170.717-127.4-236.391-46.309 21.967-77.924 65.993-77.924 116.732 0 72.69 64.878 131.617 144.908 131.617 21.565-.001 42.025-4.285 60.416-11.958Z"/><path fill="#E7889D" d="M210.978 181.624c0 13.229-13.466 23.953-30.078 23.953-16.612 0-30.078-10.724-30.078-23.953s13.467-23.953 30.078-23.953c16.611 0 30.078 10.724 30.078 23.953Zm102.877 0c0 13.229 13.466 23.953 30.078 23.953 16.612 0 30.078-10.724 30.078-23.953s-13.466-23.953-30.078-23.953c-16.611 0-30.078 10.724-30.078 23.953Z"/><path fill="#4E5660" d="M286.667 163.22c0-14.987-10.857-16.395-24.25-16.395s-24.251 1.408-24.251 16.395 10.857 27.136 24.251 27.136c13.393 0 24.25-12.149 24.25-27.136Zm-100.739-2.693a7.5 7.5 0 0 1-7.5-7.5v-12.282a7.5 7.5 0 0 1 15 0v12.282a7.5 7.5 0 0 1-7.5 7.5Zm152.977 0a7.5 7.5 0 0 1-7.5-7.5v-12.282a7.5 7.5 0 0 1 15 0v12.282a7.5 7.5 0 0 1-7.5 7.5Zm60.763-60.241c-19.404-51.926-73.523-89.29-137.251-89.29-63.728 0-117.847 37.364-137.252 89.29 49.031 2.448 121.393-14.528 137.251-41.61 15.859 27.082 88.221 44.058 137.252 41.61Z"/><path fill="#383C43" d="M176.572 97.006c1.417-27.677 8.402-53.183 18.863-71.132-32.797 15.557-58.224 42.176-70.27 74.412 15.628.78 33.625-.416 51.407-3.28Z"/><path fill="#FFD3BD" d="M437.882 219.261c-4.903 2.43-11.208 4.79-18.372 7.018l18.521 53.166c9.359-2.988 17.846-6.246 24.861-9.723 13.934-6.906 19.632-23.801 12.725-37.736-6.905-13.933-23.8-19.63-37.735-12.725Z"/><path fill="#E7889D" d="m511.387 343.955-1.669-3.473a6.64 6.64 0 0 1-.157-5.399l1.716-4.177c1.575-3.834-1.697-7.899-5.779-7.179l-30.533 5.384-8.818 1.555c-7.458 1.315-12.593 8.222-11.705 15.742l4.55 38.519c-3.631-1.236-7.691-1.93-11.978-1.93-15.436 0-27.95 8.967-27.95 20.029s12.514 20.029 27.95 20.029 27.95-8.967 27.95-20.029v-44.698l31.934-5.631c4.024-.708 6.258-5.061 4.489-8.742Z"/><path fill="#98CD64" d="m77.467 222.619-1.4-2.914a5.57 5.57 0 0 1-.132-4.53l1.44-3.505c1.322-3.217-1.424-6.628-4.849-6.024l-25.62 4.518-7.399 1.305c-6.258 1.103-10.567 6.899-9.821 13.209l3.818 32.321c-3.047-1.037-6.453-1.619-10.051-1.619C10.5 255.379 0 262.904 0 272.186s10.5 16.806 23.453 16.806 23.453-7.524 23.453-16.806V234.68l26.796-4.725c3.374-.595 5.249-4.247 3.765-7.336Z"/></g><defs><clipPath id="a"><path fill="#fff" d="M0 0h512v512H0z"/></clipPath></defs></svg>

<svg width="512" height="512" viewBox="0 0 512 512" fill="none" xmlns="http://www.w3.org/2000/svg">
<g clip-path="url(#clip0)">
<path d="M288.73 268.591C289.816 253.077 303.274 241.382 318.788 242.468C340.932 244.019 410.776 232.694 437.882 219.26C451.817 212.356 468.712 218.052 475.618 231.985C482.524 245.919 476.827 262.814 462.893 269.721C425.216 288.395 345.163 300.773 314.853 298.649C299.305 297.56 287.646 284.073 288.73 268.591Z" fill="#6A95D6"/>
<path d="M72.176 350.559C61.132 339.609 61.055 321.78 72.004 310.736C91.574 290.996 156.216 248.313 209.999 237.114C225.231 233.941 240.138 243.716 243.308 258.941C246.479 274.166 236.706 289.079 221.481 292.25C180.831 300.715 125.485 336.784 111.999 350.387C101.06 361.422 83.23 361.519 72.176 350.559Z" fill="#6A95D6"/>
<path d="M89.5951 295.908C82.1151 301.517 76.0801 306.625 72.0041 310.736C61.0551 321.78 61.1311 339.609 72.1761 350.559C83.2301 361.518 101.06 361.421 111.999 350.387C114.828 347.533 119.519 343.683 125.512 339.313L89.5951 295.908Z" fill="#FFD3BD"/>
<path d="M144.97 171.169C160.744 155.396 160.744 129.823 144.97 114.049C129.197 98.2762 103.624 98.2762 87.8504 114.049C72.0771 129.823 72.0771 155.396 87.8504 171.169C103.624 186.943 129.197 186.943 144.97 171.169Z" fill="#FFD3BD"/>
<path d="M436.897 171.201C452.67 155.427 452.67 129.854 436.897 114.081C421.124 98.3074 395.55 98.3074 379.777 114.081C364.004 129.854 364.004 155.427 379.777 171.201C395.55 186.974 421.124 186.974 436.897 171.201Z" fill="#FFBE9D"/>
<path d="M360.493 316.693C360.493 256.438 316.583 207.592 262.417 207.592C208.251 207.592 164.341 256.438 164.341 316.693C164.341 376.948 208.251 406.686 262.417 406.686C316.583 406.686 360.493 376.948 360.493 316.693Z" fill="#8DAEE1"/>
<path d="M322.949 253.064C296.529 283.75 280.98 297.948 267.965 310.9C264.898 313.952 259.935 313.952 256.868 310.9C243.853 297.948 228.304 283.75 201.884 253.064H322.949Z" fill="#FFD3BD"/>
<path d="M237.56 451.871C226.318 441.801 220.443 430.267 220.099 417.589C219.73 403.99 225.706 392.817 229.559 388.97C237.04 381.499 239.435 370.868 236.753 361.368H179.901C170.625 375.47 163.161 395.519 163.801 419.116C164.337 438.891 171.05 467.904 199.983 493.822C211.619 504.244 229.418 503.166 239.747 491.636C250.123 480.05 249.144 462.248 237.56 451.871Z" fill="#383C43"/>
<path d="M320.479 361.367H268.553C264.169 370.709 265.095 382.123 271.918 390.78C284.337 406.538 331.736 464.775 344.99 483.559C353.992 496.316 371.576 499.263 384.233 490.332C396.94 481.366 399.972 463.796 391.006 451.089C377.686 432.21 337.581 382.789 320.479 361.367Z" fill="#383C43"/>
<path d="M237.56 451.872C234.235 448.894 231.393 445.785 229.011 442.559L183.319 475.538C187.826 481.696 193.307 487.842 199.983 493.822C211.619 504.244 229.418 503.166 239.747 491.636C250.123 480.051 249.144 462.249 237.56 451.872Z" fill="#D1986F"/>
<path d="M391.007 451.09C387.737 446.456 382.846 439.973 377.083 432.522L331.075 465.089C336.974 472.686 341.91 479.195 344.99 483.559C353.992 496.316 371.576 499.263 384.233 490.332C396.941 481.366 399.973 463.797 391.007 451.09Z" fill="#D1986F"/>
<path d="M170.07 351.246C183.647 388.329 219.864 406.686 262.416 406.686C304.968 406.686 341.185 388.329 354.762 351.246H170.07Z" fill="#4E5660"/>
<path d="M262.417 274.229C342.448 274.229 407.325 215.302 407.325 142.612C407.325 69.9221 342.448 10.9951 262.417 10.9951C182.387 10.9951 117.509 69.9221 117.509 142.612C117.509 215.302 182.387 274.229 262.417 274.229Z" fill="#FFD3BD"/>
<path d="M322.832 262.271C165.389 258.452 157.162 91.5539 195.432 25.8799C149.123 47.8469 117.508 91.8729 117.508 142.612C117.508 215.302 182.386 274.229 262.416 274.229C283.981 274.228 304.441 269.944 322.832 262.271Z" fill="#FFBE9D"/>
<path d="M210.978 181.624C210.978 194.853 197.512 205.577 180.9 205.577C164.288 205.577 150.822 194.853 150.822 181.624C150.822 168.395 164.289 157.671 180.9 157.671C197.511 157.671 210.978 168.395 210.978 181.624Z" fill="#E7889D"/>
<path d="M313.855 181.624C313.855 194.853 327.321 205.577 343.933 205.577C360.545 205.577 374.011 194.853 374.011 181.624C374.011 168.395 360.545 157.671 343.933 157.671C327.322 157.671 313.855 168.395 313.855 181.624Z" fill="#E7889D"/>
<path d="M286.667 163.22C286.667 148.233 275.81 146.825 262.417 146.825C249.024 146.825 238.166 148.233 238.166 163.22C238.166 178.207 249.023 190.356 262.417 190.356C275.81 190.356 286.667 178.207 286.667 163.22Z" fill="#4E5660"/>
<path d="M185.928 160.527C181.786 160.527 178.428 157.169 178.428 153.027V140.745C178.428 136.603 181.786 133.245 185.928 133.245C190.07 133.245 193.428 136.603 193.428 140.745V153.027C193.428 157.169 190.07 160.527 185.928 160.527Z" fill="#4E5660"/>
<path d="M338.905 160.527C334.763 160.527 331.405 157.169 331.405 153.027V140.745C331.405 136.603 334.763 133.245 338.905 133.245C343.047 133.245 346.405 136.603 346.405 140.745V153.027C346.405 157.169 343.047 160.527 338.905 160.527Z" fill="#4E5660"/>
<path d="M399.668 100.286C380.264 48.3601 326.145 10.9951 262.417 10.9951C198.689 10.9951 144.57 48.3601 125.165 100.286C174.196 102.734 246.558 85.7581 262.416 58.6751C278.275 85.7581 350.637 102.734 399.668 100.286Z" fill="#4E5660"/>
<path d="M176.572 97.006C177.989 69.329 184.974 43.823 195.435 25.874C162.638 41.431 137.211 68.05 125.165 100.286C140.793 101.066 158.79 99.87 176.572 97.006Z" fill="#383C43"/>
<path d="M437.882 219.261C432.979 221.691 426.674 224.051 419.51 226.279L438.031 279.445C447.39 276.457 455.877 273.199 462.892 269.722C476.826 262.816 482.524 245.921 475.617 231.986C468.712 218.053 451.817 212.356 437.882 219.261Z" fill="#FFD3BD"/>
<path d="M511.387 343.955L509.718 340.482C508.903 338.786 508.846 336.824 509.561 335.083L511.277 330.906C512.852 327.072 509.58 323.007 505.498 323.727L474.965 329.111L466.147 330.666C458.689 331.981 453.554 338.888 454.442 346.408L458.992 384.927C455.361 383.691 451.301 382.997 447.014 382.997C431.578 382.997 419.064 391.964 419.064 403.026C419.064 414.088 431.578 423.055 447.014 423.055C462.45 423.055 474.964 414.088 474.964 403.026V358.328L506.898 352.697C510.922 351.989 513.156 347.636 511.387 343.955Z" fill="#E7889D"/>
<path d="M77.467 222.619L76.067 219.705C75.383 218.282 75.335 216.635 75.935 215.175L77.375 211.67C78.697 208.453 75.951 205.042 72.526 205.646L46.906 210.164L39.507 211.469C33.249 212.572 28.94 218.368 29.686 224.678L33.504 256.999C30.457 255.962 27.051 255.38 23.453 255.38C10.5 255.379 0 262.904 0 272.186C0 281.468 10.5 288.992 23.453 288.992C36.406 288.992 46.906 281.468 46.906 272.186V234.68L73.702 229.955C77.076 229.36 78.951 225.708 77.467 222.619Z" fill="#98CD64"/>
</g>
<defs>
<clipPath id="clip0">
<rect width="512" height="512" fill="white"/>
</clipPath>
</defs>
</svg>
